X: 28667
T: Musical Priest, The
R: reel
M: 4/4
K: Bminor
BA|F/G/B BA ~B2 Bd|cBAf ecBA|F/G/B F/G/B BABd|cBAc ABBA|
FB/c/BA ~B2Bd|cBAg/f/ ecBA|F/G/B BA ~B2 Bd|cBAF ~B2Bc|
d/d/d dc dfed|ce e/e/e fe e/e/e|dcBc de/f/gb|afec BABc|
d d/d/d c dfed|c/B/A e/c/A f/c/A e/c/A|dcBc db ~b2|afec B2 Bc|
dBBf ba f/g/b|afec ABce|dF/G/Bf/g/ bafb|afec ABBc|
d/c/B Bf bafb|afec ABce|dcBc defb|afec B2|

